source/img/contacts-icon-phone-tablet.svg

<svg width="76" height="76" fill="none" xmlns="http://www.w3.org/2000/svg"><g filter="url(#filter0_d)"><circle cx="38" cy="34" r="34" fill="#121936"/><path fill-rule="evenodd" clip-rule="evenodd" d="M38 22.7969c-4.2258 0-8.4617.7142-9.9986 2.1379-1.2752 1.181-1.7003 3.2675-1.8436 4.5886 0 0-.0197.1306-.0197.1867 0 .5181.4447.9335.9884.9335.0643 0 2.4416-.182 3.8749-.294.0345-.0048.0692-.0094.1037-.0187.5338-.0139.9639-.4248.9639-.9335l.0048-1.8392c0-.5695.4895-1.027 1.0925-1.027h9.6673c.6031 0 1.0927.4574 1.0927 1.027l.0048 1.8392c0 .5087.43.9196.9638.9335.0343.0094.069.0139.1039.0187 1.4334.1119 3.8107.294 3.8747.294.5435 0 .9886-.4154.9886-.9335 0-.0561-.0198-.1867-.0198-.1867-.1434-1.3211-.568-3.4075-1.8432-4.5886-1.5375-1.4237-5.7734-2.1379-9.9991-2.1379zm0 12.1366c-1.0923 0-1.977.8355-1.977 1.8671s.8847 1.8671 1.977 1.8671 1.9769-.8355 1.9769-1.8671-.8846-1.8671-1.9769-1.8671zm-1.4827-4.2012v-1.167c0-.6441-.5537-1.1669-1.2356-1.1669-.682 0-1.2356.5229-1.2356 1.1669v1.167l-6.6677 6.7265c-.4595.4249-.7462 1.0175-.7462 1.6712v1.8718c0 1.0316.8847 1.8671 1.977 1.8671h.4943v1.1671c0 .6441.5536 1.1668 1.2356 1.1668s1.2356-.5227 1.2356-1.1668v-1.1671h12.8506v1.1671c0 .6441.5534 1.1668 1.2357 1.1668.6819 0 1.2355-.5227 1.2355-1.1668v-1.1671h.4942c1.0923 0 1.977-.8355 1.977-1.8671V39.13c0-.6538-.2867-1.2464-.7462-1.6712l-6.6675-6.7265v-1.167c0-.6441-.5537-1.1669-1.2356-1.1669-.682 0-1.2356.5229-1.2356 1.1669v1.167h-2.9655zM38 33.0663c2.1846 0 3.954 1.6711 3.954 3.7343S40.1846 40.5351 38 40.5351s-3.954-1.6712-3.954-3.7345c0-2.0632 1.7694-3.7343 3.954-3.7343z" fill="#FFD74B"/></g><defs><filter id="filter0_d" x="0" y="0" width="76" height="76" filterUnits="userSpaceOnUse" color-interpolation-filters="sRGB"><feFlood flood-opacity="0" result="BackgroundImageFix"/><feColorMatrix in="SourceAlpha" values="0 0 0 0 0 0 0 0 0 0 0 0 0 0 0 0 0 0 127 0"/><feOffset dy="4"/><feGaussianBlur stdDeviation="2"/><feColorMatrix values="0 0 0 0 0 0 0 0 0 0 0 0 0 0 0 0 0 0 0.25 0"/><feBlend in2="BackgroundImageFix" result="effect1_dropShadow"/><feBlend in="SourceGraphic" in2="effect1_dropShadow" result="shape"/></filter></defs></svg>

<svg width="76" height="76" viewBox="0 0 76 76" fill="none" xmlns="http://www.w3.org/2000/svg">
<g filter="url(#filter0_d)">
<circle cx="38" cy="34" r="34" fill="#121936"/>
<path fill-rule="evenodd" clip-rule="evenodd" d="M38 22.7969C33.7742 22.7969 29.5383 23.5111 28.0014 24.9348C26.7262 26.1158 26.3011 28.2023 26.1578 29.5234C26.1578 29.5234 26.1381 29.654 26.1381 29.7101C26.1381 30.2282 26.5828 30.6436 27.1265 30.6436C27.1908 30.6436 29.5681 30.4616 31.0014 30.3496C31.0359 30.3448 31.0706 30.3402 31.1051 30.3309C31.6389 30.317 32.069 29.9061 32.069 29.3974L32.0738 27.5582C32.0738 26.9887 32.5633 26.5312 33.1663 26.5312H42.8336C43.4367 26.5312 43.9263 26.9886 43.9263 27.5582L43.9311 29.3974C43.9311 29.9061 44.3611 30.317 44.8949 30.3309C44.9292 30.3403 44.9639 30.3448 44.9988 30.3496C46.4322 30.4615 48.8095 30.6436 48.8735 30.6436C49.417 30.6436 49.8621 30.2282 49.8621 29.7101C49.8621 29.654 49.8423 29.5234 49.8423 29.5234C49.6989 28.2023 49.2743 26.1159 47.9991 24.9348C46.4616 23.5111 42.2257 22.7969 38 22.7969ZM38 34.9335C36.9077 34.9335 36.023 35.769 36.023 36.8006C36.023 37.8322 36.9077 38.6677 38 38.6677C39.0923 38.6677 39.9769 37.8322 39.9769 36.8006C39.9769 35.769 39.0923 34.9335 38 34.9335ZM36.5173 30.7323V29.5653C36.5173 28.9212 35.9636 28.3984 35.2817 28.3984C34.5997 28.3984 34.0461 28.9213 34.0461 29.5653V30.7323L27.3784 37.4588C26.9189 37.8837 26.6322 38.4763 26.6322 39.13V41.0018C26.6322 42.0334 27.5169 42.8689 28.6092 42.8689H29.1035V44.036C29.1035 44.6801 29.6571 45.2028 30.3391 45.2028C31.0211 45.2028 31.5747 44.6801 31.5747 44.036V42.8689H44.4253V44.036C44.4253 44.6801 44.9787 45.2028 45.661 45.2028C46.3429 45.2028 46.8965 44.6801 46.8965 44.036V42.8689H47.3907C48.483 42.8689 49.3677 42.0334 49.3677 41.0018V39.13C49.3677 38.4762 49.081 37.8836 48.6215 37.4588L41.954 30.7323V29.5653C41.954 28.9212 41.4003 28.3984 40.7184 28.3984C40.0364 28.3984 39.4828 28.9213 39.4828 29.5653V30.7323H36.5173ZM38 33.0663C40.1846 33.0663 41.954 34.7374 41.954 36.8006C41.954 38.8638 40.1846 40.5351 38 40.5351C35.8154 40.5351 34.046 38.8639 34.046 36.8006C34.046 34.7374 35.8154 33.0663 38 33.0663Z" fill="#FFD74B"/>
</g>
<defs>
<filter id="filter0_d" x="0" y="0" width="76" height="76" filterUnits="userSpaceOnUse" color-interpolation-filters="sRGB">
<feFlood flood-opacity="0" result="BackgroundImageFix"/>
<feColorMatrix in="SourceAlpha" type="matrix" values="0 0 0 0 0 0 0 0 0 0 0 0 0 0 0 0 0 0 127 0"/>
<feOffset dy="4"/>
<feGaussianBlur stdDeviation="2"/>
<feColorMatrix type="matrix" values="0 0 0 0 0 0 0 0 0 0 0 0 0 0 0 0 0 0 0.25 0"/>
<feBlend mode="normal" in2="BackgroundImageFix" result="effect1_dropShadow"/>
<feBlend mode="normal" in="SourceGraphic" in2="effect1_dropShadow" result="shape"/>
</filter>
</defs>
</svg>
